packages/kaspersky-hexa-ui-icons/src/iconsSVGs/24/HistorySolid.svg

<svg xmlns="http://www.w3.org/2000/svg" width="24" height="24" fill="none" viewBox="0 0 24 24"><path fill="#000" fill-rule="evenodd" d="M2 12C2 6.4772 6.4772 2 12 2s10 4.4772 10 10-4.4772 10-10 10S2 17.5228 2 12m10-6c.5523 0 1 .4477 1 1v4.4458l3.53 2.2062c.4683.2927.6107.9097.318 1.378s-.9097.6107-1.378.318l-4-2.5A1 1 0 0 1 11 12V7c0-.5523.4477-1 1-1"/></svg>

<svg width="24" height="24" viewBox="0 0 24 24" fill="none" xmlns="http://www.w3.org/2000/svg">
<path fill-rule="evenodd" clip-rule="evenodd" d="M2 12C2 6.47715 6.47715 2 12 2C17.5228 2 22 6.47715 22 12C22 17.5228 17.5228 22 12 22C6.47715 22 2 17.5228 2 12ZM12 6C12.5523 6 13 6.44772 13 7V11.4458L16.53 13.652C16.9983 13.9447 17.1407 14.5617 16.848 15.03C16.5553 15.4983 15.9383 15.6407 15.47 15.348L11.47 12.848C11.1776 12.6653 11 12.3448 11 12V7C11 6.44772 11.4477 6 12 6Z" fill="black"/>
</svg>
